;FLAVOR:Marlin
;TIME:869
;Filament used: 1.371m
;Layer height: 0.2
;MINX:-13
;MINY:-13
;MINZ:0.3
;MAXX:13
;MAXY:13
;MAXZ:19.9
;Generated with Cura_SteamEngine 4.3.0
M140 S90
M105
M190 S90
M104 S240
M105
M109 S240
M82 ;absolute extrusion mode
G28 ;Home
G1 Z15.0 F6000 ;Move the platform down 15mm
;Prime the extruder
G92 E0
G1 F200 E3
G92 E0
G92 E0
G92 E0
G1 F1500 E-5
;LAYER_COUNT:99
;LAYER:0
M107
G0 F1800 X13 Y-10 Z0.3
;TYPE:SKIRT
G1 F1500 E0
G1 F1800 X13 Y10 E0.9978
G1 X12.96 Y10.488 E1.02223
G1 X12.841 Y10.963 E1.04666
G1 X12.647 Y11.412 E1.07106
G1 X12.382 Y11.824 E1.0955
G1 X12.054 Y12.187 E1.11991
G1 X11.671 Y12.492 E1.14434
G1 X11.243 Y12.73 E1.16877
G1 X10.783 Y12.896 E1.19317
G1 X10.302 Y12.985 E1.21757
G1 X10 Y13 E1.23266
G1 X-10 Y13 E2.23046
G1 X-10.488 Y12.96 E2.25489
G1 X-10.963 Y12.841 E2.27932
G1 X-11.412 Y12.647 E2.30372
G1 X-11.824 Y12.382 E2.32816
G1 X-12.187 Y12.054 E2.35257
G1 X-12.492 Y11.671 E2.377
G1 X-12.73 Y11.243 E2.40143
G1 X-12.896 Y10.783 E2.42583
G1 X-12.985 Y10.302 E2.45023
G1 X-13 Y10 E2.46532
G1 X-13 Y-10 E3.46312
G1 X-12.96 Y-10.488 E3.48755
G1 X-12.841 Y-10.963 E3.51198
G1 X-12.647 Y-11.412 E3.53638
G1 X-12.382 Y-11.824 E3.56082
G1 X-12.054 Y-12.187 E3.58523
G1 X-11.671 Y-12.492 E3.60966
G1 X-11.243 Y-12.73 E3.63409
G1 X-10.783 Y-12.896 E3.65849
G1 X-10.302 Y-12.985 E3.68289
G1 X-10 Y-13 E3.69798
G1 X10 Y-13 E4.69578
G1 X10.488 Y-12.96 E4.72021
G1 X10.963 Y-12.841 E4.74464
G1 X11.412 Y-12.647 E4.76904
G1 X11.824 Y-12.382 E4.79348
G1 X12.187 Y-12.054 E4.81789
G1 X12.492 Y-11.671 E4.84232
G1 X12.73 Y-11.243 E4.86675
G1 X12.896 Y-10.783 E4.89115
G1 X12.985 Y-10.302 E4.91555
G1 X13 Y-10 E4.93064
G0 X12.6 Y-10
G1 X12.6 Y10 E5.92844
G1 X12.56 Y10.454 E5.95118
G1 X12.442 Y10.894 E5.97391
G1 X12.248 Y11.306 E5.99663
G1 X11.985 Y11.679 E6.0194
G1 X11.662 Y12 E6.04211
G1 X11.287 Y12.259 E6.06485
G1 X10.873 Y12.449 E6.08758
G1 X10.432 Y12.564 E6.11031
G1 X10 Y12.6 E6.13194
G1 X-10 Y12.6 E7.12975
G1 X-10.454 Y12.56 E7.15248
G1 X-10.894 Y12.442 E7.17521
G1 X-11.306 Y12.248 E7.19793
G1 X-11.679 Y11.985 E7.2207
G1 X-12 Y11.662 E7.24342
G1 X-12.259 Y11.287 E7.26616
G1 X-12.449 Y10.873 E7.28888
G1 X-12.564 Y10.432 E7.31162
G1 X-12.6 Y10 E7.33325
G1 X-12.6 Y-10 E8.33105
G1 X-12.56 Y-10.454 E8.35379
G1 X-12.442 Y-10.894 E8.37652
G1 X-12.248 Y-11.306 E8.39924
G1 X-11.985 Y-11.679 E8.42201
G1 X-11.662 Y-12 E8.44472
G1 X-11.287 Y-12.259 E8.46746
G1 X-10.873 Y-12.449 E8.49019
G1 X-10.432 Y-12.564 E8.51293
G1 X-10 Y-12.6 E8.53455
G1 X10 Y-12.6 E9.53236
G1 X10.454 Y-12.56 E9.55509
G1 X10.894 Y-12.442 E9.57782
G1 X11.306 Y-12.248 E9.60054
G1 X11.679 Y-11.985 E9.62331
G1 X12 Y-11.662 E9.64603
G1 X12.259 Y-11.287 E9.66877
G1 X12.449 Y-10.873 E9.69149
G1 X12.564 Y-10.432 E9.71423
G1 X12.6 Y-10 E9.73586
G0 X12.2 Y-10
G1 X12.2 Y10 E10.73366
G1 X12.16 Y10.417 E10.75456
G1 X12.042 Y10.819 E10.77546
G1 X11.849 Y11.191 E10.79637
G1 X11.59 Y11.52 E10.81726
G1 X11.273 Y11.794 E10.83817
G1 X10.91 Y12.003 E10.85906
G1 X10.513 Y12.139 E10.88
G1 X10 Y12.2 E10.90577
G1 X-10 Y12.2 E11.90358
G1 X-10.417 Y12.16 E11.92448
G1 X-10.819 Y12.042 E11.94538
G1 X-11.191 Y11.849 E11.96629
G1 X-11.52 Y11.59 E11.98718
G1 X-11.794 Y11.273 E12.00808
G1 X-12.003 Y10.91 E12.02898
G1 X-12.139 Y10.513 E12.04992
G1 X-12.2 Y10 E12.07569
G1 X-12.2 Y-10 E13.07349
G1 X-12.16 Y-10.417 E13.09439
G1 X-12.042 Y-10.819 E13.1153
G1 X-11.849 Y-11.191 E13.1362
G1 X-11.59 Y-11.52 E13.15709
G1 X-11.273 Y-11.794 E13.178
G1 X-10.91 Y-12.003 E13.19889
G1 X-10.513 Y-12.139 E13.21983
G1 X-10 Y-12.2 E13.24561
G1 X10 Y-12.2 E14.24341
G1 X10.417 Y-12.16 E14.26431
G1 X10.819 Y-12.042 E14.28521
G1 X11.191 Y-11.849 E14.30612
G1 X11.52 Y-11.59 E14.32701
G1 X11.794 Y-11.273 E14.34791
G1 X12.003 Y-10.91 E14.36881
G1 X12.139 Y-10.513 E14.38975
G1 X12.2 Y-10 E14.41552
G0 X11.8 Y-10
G1 X11.8 Y10 E15.41333
G1 X11.76 Y10.377 E15.43224
G1 X11.642 Y10.737 E15.45114
G1 X11.452 Y11.064 E15.47001
G1 X11.197 Y11.345 E15.48894
G1 X10.888 Y11.565 E15.50786
G1 X10.541 Y11.717 E15.52676
G1 X10 Y11.8 E15.55407
G1 X-10 Y11.8 E16.55187
G1 X-10.377 Y11.76 E16.57079
G1 X-10.737 Y11.642 E16.58969
G1 X-11.064 Y11.452 E16.60856
G1 X-11.345 Y11.197 E16.62749
G1 X-11.565 Y10.888 E16.64641
G1 X-11.717 Y10.541 E16.66531
G1 X-11.8 Y10 E16.69262
G1 X-11.8 Y-10 E17.69042
G1 X-11.76 Y-10.377 E17.70934
G1 X-11.642 Y-10.737 E17.72824
G1 X-11.452 Y-11.064 E17.74711
G1 X-11.197 Y-11.345 E17.76604
G1 X-10.888 Y-11.565 E17.78496
G1 X-10.541 Y-11.717 E17.80386
G1 X-10 Y-11.8 E17.83117
G1 X10 Y-11.8 E18.82897
G1 X10.377 Y-11.76 E18.84788
G1 X10.737 Y-11.642 E18.86679
G1 X11.064 Y-11.452 E18.88565
G1 X11.345 Y-11.197 E18.90458
G1 X11.565 Y-10.888 E18.92351
G1 X11.717 Y-10.541 E18.94241
G1 X11.8 Y-10 E18.96972
G0 X11.4 Y-10
G1 X11.4 Y10 E19.96752
G1 X11.36 Y10.332 E19.9842
G1 X11.243 Y10.644 E20.00083
G1 X11.055 Y10.921 E20.01753
G1 X10.807 Y11.144 E20.03417
G1 X10.513 Y11.303 E20.05084
G1 X10.189 Y11.387 E20.06754
G1 X10 Y11.4 E20.07699
G1 X-10 Y11.4 E21.0748
G1 X-10.332 Y11.36 E21.09148
G1 X-10.644 Y11.243 E21.10811
G1 X-10.921 Y11.055 E21.12481
G1 X-11.144 Y10.807 E21.14145
G1 X-11.303 Y10.513 E21.15812
G1 X-11.387 Y10.189 E21.17482
G1 X-11.4 Y10 E21.18427
G1 X-11.4 Y-10 E22.18208
G1 X-11.36 Y-10.332 E22.19876
G1 X-11.243 Y-10.644 E22.21538
G1 X-11.055 Y-10.921 E22.23209
G1 X-10.807 Y-11.144 E22.24872
G1 X-10.513 Y-11.303 E22.2654
G1 X-10.189 Y-11.387 E22.2821
G1 X-10 Y-11.4 E22.29155
G1 X10 Y-11.4 E23.28935
G1 X10.332 Y-11.36 E23.30604
G1 X10.644 Y-11.243 E23.32266
G1 X10.921 Y-11.055 E23.33936
G1 X11.144 Y-10.807 E23.356
G1 X11.303 Y-10.513 E23.37268
G1 X11.387 Y-10.189 E23.38938
G1 X11.4 Y-10 E23.39883
G0 X11 Y-10
G1 X11 Y10 E24.39663
G1 X10.96 Y10.279 E24.41069
G1 X10.844 Y10.536 E24.42476
G1 X10.661 Y10.751 E24.43885
G1 X10.425 Y10.905 E24.45291
G1 X10.155 Y10.988 E24.467
G1 X10 Y11 E24.47476
G1 X-10 Y11 E25.47256
G1 X-10.279 Y10.96 E25.48662
G1 X-10.536 Y10.844 E25.50069
G1 X-10.751 Y10.661 E25.51477
G1 X-10.905 Y10.425 E25.52883
G1 X-10.988 Y10.155 E25.54293
G1 X-11 Y10 E25.55068
G1 X-11 Y-10 E26.54849
G1 X-10.96 Y-10.279 E26.56255
G1 X-10.844 Y-10.536 E26.57662
G1 X-10.661 Y-10.751 E26.5907
G1 X-10.425 Y-10.905 E26.60476
G1 X-10.155 Y-10.988 E26.61885
G1 X-10 Y-11 E26.62661
G1 X10 Y-11 E27.62441
G1 X10.279 Y-10.96 E27.63847
G1 X10.536 Y-10.844 E27.65254
G1 X10.751 Y-10.661 E27.66663
G1 X10.905 Y-10.425 E27.68069
G1 X10.988 Y-10.155 E27.69478
G1 X11 Y-10 E27.70254
G0 X10.6 Y-10
G1 X10.6 Y10 E28.70034
G1 X10.56 Y10.215 E28.71125
G1 X10.447 Y10.401 E28.72211
G1 X10.274 Y10.534 E28.73299
G1 X10 Y10.6 E28.74706
G1 X-10 Y10.6 E29.74486
G1 X-10.215 Y10.56 E29.75577
G1 X-10.401 Y10.447 E29.76663
G1 X-10.534 Y10.274 E29.77751
G1 X-10.6 Y10 E29.79158
G1 X-10.6 Y-10 E30.78938
G1 X-10.56 Y-10.215 E30.80029
G1 X-10.447 Y-10.401 E30.81115
G1 X-10.274 Y-10.534 E30.82203
G1 X-10 Y-10.6 E30.8361
G1 X10 Y-10.6 E31.8339
G1 X10.215 Y-10.56 E31.84481
G1 X10.401 Y-10.447 E31.85567
G1 X10.534 Y-10.274 E31.86655
G1 X10.6 Y-10 E31.88062
G0 X10.2 Y-10
G1 X10.2 Y10 E32.87842
G1 X10.161 Y10.119 E32.88467
G1 X10 Y10.2 E32.89366
G1 X-10 Y10.2 E33.89146
G1 X-10.119 Y10.161 E33.89771
G1 X-10.2 Y10 E33.9067
G1 X-10.2 Y-10 E34.90451
G1 X-10.161 Y-10.119 E34.91075
G1 X-10 Y-10.2 E34.91975
G1 X10 Y-10.2 E35.91755
G1 X10.119 Y-10.161 E35.9238
G1 X10.2 Y-10 E35.93279
G1 F1500 E30.93279
;MESH:xyzCalibration_cube.stl
G0 F1800 X9.19 Y-9.19
G0 X-9.5 Y9.53
G0 X-9.8 Y9.8
;TYPE:WALL-OUTER
G1 F1500 E35.93279
G1 F1800 X-9.8 Y-9.8 E36.91064
G1 X9.8 Y-9.8 E37.88848
G1 X9.8 Y9.8 E38.86633
G1 X-9.8 Y9.8 E39.84418
G0 X-9.8 Y9.6
G0 X-9.36 Y9.36
G0 X-9.4 Y9.4
;TYPE:WALL-INNER
G1 X-9.4 Y-9.4 E40.78212
G1 X9.4 Y-9.4 E41.72005
G1 X9.4 Y9.4 E42.65799
G1 X-9.4 Y9.4 E43.59592
G0 X-9.01 Y9.01
;TYPE:SKIN
G1 X-9.01 Y-9.01 E44.49495
G1 X9.01 Y-9.01 E45.39397
G1 X9.01 Y9.01 E46.29299
G1 X-9.01 Y9.01 E47.19201
G0 X-8.829 Y8.706
G1 X-8.706 Y8.829 E47.20069
G0 X-8.14 Y8.829
G1 X-8.829 Y8.14 E47.2493
G0 X-8.829 Y7.575
G1 X-7.575 Y8.829 E47.33778
G0 X-7.009 Y8.829
G1 X-8.829 Y7.009 E47.46619
G0 X-8.829 Y6.443
G1 X-6.443 Y8.829 E47.63453
G0 X-5.878 Y8.829
G1 X-8.829 Y5.878 E47.84274
G0 X-8.829 Y5.312
G1 X-5.312 Y8.829 E48.09089
G0 X-4.746 Y8.829
G1 X-8.829 Y4.746 E48.37896
G0 X-8.829 Y4.181
G1 X-4.181 Y8.829 E48.7069
G0 X-3.615 Y8.829
G1 X-8.829 Y3.615 E49.07478
G0 X-8.829 Y3.049
G1 X-3.049 Y8.829 E49.48259
G0 X-2.484 Y8.829
G1 X-8.829 Y2.484 E49.93026
G0 X-8.829 Y1.918
G1 X-1.918 Y8.829 E50.41787
G0 X-1.352 Y8.829
G1 X-8.829 Y1.352 E50.94542
G0 X-8.829 Y0.787
G1 X-.787 Y8.829 E51.51282
G0 X-.221 Y8.829
G1 X-8.829 Y0.221 E52.12016
G0 X-8.829 Y-.344
G1 X0.344 Y8.829 E52.76737
G0 X0.91 Y8.829
G1 X-8.829 Y-.91 E53.45451
G0 X-8.829 Y-1.475
G1 X1.475 Y8.829 E54.18151
G0 X2.041 Y8.829
G1 X-8.829 Y-2.041 E54.94845
G0 X-8.829 Y-2.607
G1 X2.607 Y8.829 E55.75532
G0 X3.172 Y8.829
G1 X-8.829 Y-3.172 E56.60205
G0 X-8.829 Y-3.738
G1 X3.738 Y8.829 E57.48872
G0 X4.304 Y8.829
G1 X-8.829 Y-4.304 E58.41533
G0 X-8.829 Y-4.869
G1 X4.869 Y8.829 E59.3818
G0 X5.435 Y8.829
G1 X-8.829 Y-5.435 E60.3882
G0 X-8.829 Y-6.001
G1 X6.001 Y8.829 E61.43453
G0 X6.566 Y8.829
G1 X-8.829 Y-6.566 E62.52074
G0 X-8.829 Y-7.132
G1 X7.132 Y8.829 E63.64687
G0 X7.698 Y8.829
G1 X-8.829 Y-7.698 E64.81294
G0 X-8.829 Y-8.263
G1 X8.263 Y8.829 E66.01887
G0 X8.829 Y8.829
G1 X-8.829 Y-8.829 E67.26474
G0 X-8.263 Y-8.829
G1 X8.829 Y8.263 E68.47067
G0 X8.829 Y7.698
G1 X-7.698 Y-8.829 E69.63674
G0 X-7.132 Y-8.829
G1 X8.829 Y7.132 E70.76288
G0 X8.829 Y6.566
G1 X-6.566 Y-8.829 E71.84908
G0 X-6.001 Y-8.829
G1 X8.829 Y6.001 E72.89541
G0 X8.829 Y5.435
G1 X-5.435 Y-8.829 E73.90182
G0 X-4.869 Y-8.829
G1 X8.829 Y4.869 E74.86828
G0 X8.829 Y4.304
G1 X-4.304 Y-8.829 E75.79489
G0 X-3.738 Y-8.829
G1 X8.829 Y3.738 E76.68156
G0 X8.829 Y3.172
G1 X-3.172 Y-8.829 E77.52829
G0 X-2.607 Y-8.829
G1 X8.829 Y2.607 E78.33516
G0 X8.829 Y2.041
G1 X-2.041 Y-8.829 E79.1021
G0 X-1.475 Y-8.829
G1 X8.829 Y1.475 E79.8291
G0 X8.829 Y0.91
G1 X-.91 Y-8.829 E80.51624
G0 X-.344 Y-8.829
G1 X8.829 Y0.344 E81.16345
G0 X8.829 Y-.221
G1 X0.221 Y-8.829 E81.77079
G0 X0.787 Y-8.829
G1 X8.829 Y-.787 E82.3382
G0 X8.829 Y-1.352
G1 X1.352 Y-8.829 E82.86574
G0 X1.918 Y-8.829
G1 X8.829 Y-1.918 E83.35335
G0 X8.829 Y-2.484
G1 X2.484 Y-8.829 E83.80102
G0 X3.049 Y-8.829
G1 X8.829 Y-3.049 E84.20883
G0 X8.829 Y-3.615
G1 X3.615 Y-8.829 E84.57671
G0 X4.181 Y-8.829
G1 X8.829 Y-4.181 E84.90465
G0 X8.829 Y-4.746
G1 X4.746 Y-8.829 E85.19273
G0 X5.312 Y-8.829
G1 X8.829 Y-5.312 E85.44087
G0 X8.829 Y-5.878
G1 X5.878 Y-8.829 E85.64908
G0 X6.443 Y-8.829
G1 X8.829 Y-6.443 E85.81742
G0 X8.829 Y-7.009
G1 X7.009 Y-8.829 E85.94583
G0 X7.575 Y-8.829
G1 X8.829 Y-7.575 E86.03431
G0 X8.829 Y-8.14
G1 X8.14 Y-8.829 E86.08292
G0 X8.706 Y-8.829
G1 X8.829 Y-8.706 E86.0916
G0 X9.2 Y-8.706
G1 F1500 E81.0916
;MESH:NONMESH
G0 F600 X9.2 Y-8.706 Z0.5
G0 F1800 X9.29 Y-8.706
G0 X9.218 Y9.218
G0 X-9.53 Y9.53
G0 X-9.8 Y9.8
;TIME_ELAPSED:63.987762
;LAYER:1
M140 S90
M106 S127.5
;TYPE:WALL-OUTER
;MESH:xyzCalibration_cube.stl
G1 F1500 E86.0916
G1 F3600 X-9.8 Y-9.8 E86.7435
G1 X9.8 Y-9.8 E87.3954
G1 X9.8 Y9.8 E88.0473
G1 X-9.8 Y9.8 E88.6992
G0 F4800 X-9.8 Y9.6
G0 X-9.36 Y9.36
G0 X-9.4 Y9.4
;TYPE:WALL-INNER
G1 F3600 X-9.4 Y-9.4 E89.32449
G1 X9.4 Y-9.4 E89.94978
G1 X9.4 Y9.4 E90.57507
G1 X-9.4 Y9.4 E91.20036
G0 F4800 X-9.01 Y9.01
;TYPE:SKIN
G1 F3600 X-9.01 Y-9.01 E91.79971
G1 X9.01 Y-9.01 E92.39905
G1 X9.01 Y9.01 E92.9984
G1 X-9.01 Y9.01 E93.59775
G0 F4800 X-9.29 Y9.01
G0 X-9.29 Y-8.706
G0 X-8.829 Y-8.706
G1 F3600 X-8.706 Y-8.829 E93.60353
G0 F4800 X-8.14 Y-8.829
G1 F3600 X-8.829 Y-8.14 E93.63594
G0 F4800 X-8.829 Y-7.575
G1 F3600 X-7.575 Y-8.829 E93.69493
G0 F4800 X-7.009 Y-8.829
G1 F3600 X-8.829 Y-7.009 E93.78053
G0 F4800 X-8.829 Y-6.443
G1 F3600 X-6.443 Y-8.829 E93.89276
G0 F4800 X-5.878 Y-8.829
G1 F3600 X-8.829 Y-5.878 E94.03157
G0 F4800 X-8.829 Y-5.312
G1 F3600 X-5.312 Y-8.829 E94.197
G0 F4800 X-4.746 Y-8.829
G1 F3600 X-8.829 Y-4.746 E94.38905
G0 F4800 X-8.829 Y-4.181
G1 F3600 X-4.181 Y-8.829 E94.60768
G0 F4800 X-3.615 Y-8.829
G1 F3600 X-8.829 Y-3.615 E94.85293
G0 F4800 X-8.829 Y-3.049
G1 F3600 X-3.049 Y-8.829 E95.1248
G0 F4800 X-2.484 Y-8.829
G1 F3600 X-8.829 Y-2.484 E95.42325
G0 F4800 X-8.829 Y-1.918
G1 F3600 X-1.918 Y-8.829 E95.74832
G0 F4800 X-1.352 Y-8.829
G1 F3600 X-8.829 Y-1.352 E96.10002
G0 F4800 X-8.829 Y-.787
G1 F3600 X-.787 Y-8.829 E96.47829
G0 F4800 X-.221 Y-8.829
G1 F3600 X-8.829 Y-.221 E96.88318
G0 F4800 X-8.829 Y0.344
G1 F3600 X0.344 Y-8.829 E97.31465
G0 F4800 X0.91 Y-8.829
G1 F3600 X-8.829 Y0.91 E97.77275
G0 F4800 X-8.829 Y1.475
G1 F3600 X1.475 Y-8.829 E98.25742
G0 F4800 X2.041 Y-8.829
G1 F3600 X-8.829 Y2.041 E98.76871
G0 F4800 X-8.829 Y2.607
G1 F3600 X2.607 Y-8.829 E99.30662
G0 F4800 X3.172 Y-8.829
G1 F3600 X-8.829 Y3.172 E99.87111
G0 F4800 X-8.829 Y3.738
G1 F3600 X3.738 Y-8.829 E100.46222
G0 F4800 X4.304 Y-8.829
G1 F3600 X-8.829 Y4.304 E101.07996
G0 F4800 X-8.829 Y4.869
G1 F3600 X4.869 Y-8.829 E101.72427
G0 F4800 X5.435 Y-8.829
G1 F3600 X-8.829 Y5.435 E102.39521
G0 F4800 X-8.829 Y6.001
G1 F3600 X6.001 Y-8.829 E103.09277
G0 F4800 X6.566 Y-8.829
G1 F3600 X-8.829 Y6.566 E103.8169
G0 F4800 X-8.829 Y7.132
G1 F3600 X7.132 Y-8.829 E104.56766
G0 F4800 X7.698 Y-8.829
G1 F3600 X-8.829 Y7.698 E105.34503
G0 F4800 X-8.829 Y8.263
G1 F3600 X8.263 Y-8.829 E106.14899
G0 F4800 X8.829 Y-8.829
G1 F3600 X-8.829 Y8.829 E106.97957
G0 F4800 X-8.263 Y8.829
G1 F3600 X8.829 Y-8.263 E107.78352
G0 F4800 X8.829 Y-7.698
G1 F3600 X-7.698 Y8.829 E108.5609
G0 F4800 X-7.132 Y8.829
G1 F3600 X8.829 Y-7.132 E109.31166
G0 F4800 X8.829 Y-6.566
G1 F3600 X-6.566 Y8.829 E110.03579
G0 F4800 X-6.001 Y8.829
G1 F3600 X8.829 Y-6.001 E110.73335
G0 F4800 X8.829 Y-5.435
G1 F3600 X-5.435 Y8.829 E111.40429
G0 F4800 X-4.869 Y8.829
G1 F3600 X8.829 Y-4.869 E112.0486
G0 F4800 X8.829 Y-4.304
G1 F3600 X-4.304 Y8.829 E112.66633
G0 F4800 X-3.738 Y8.829
G1 F3600 X8.829 Y-3.738 E113.25745
G0 F4800 X8.829 Y-3.172
G1 F3600 X-3.172 Y8.829 E113.82194
G0 F4800 X-2.607 Y8.829
G1 F3600 X8.829 Y-2.607 E114.35985
G0 F4800 X8.829 Y-2.041
G1 F3600 X-2.041 Y8.829 E114.87114
G0 F4800 X-1.475 Y8.829
G1 F3600 X8.829 Y-1.475 E115.35581
G0 F4800 X8.829 Y-.91
G1 F3600 X-.91 Y8.829 E115.8139
G0 F4800 X-.344 Y8.829
G1 F3600 X8.829 Y-.344 E116.24537
G0 F4800 X8.829 Y0.221
G1 F3600 X0.221 Y8.829 E116.65027
G0 F4800 X0.787 Y8.829
G1 F3600 X8.829 Y0.787 E117.02854
G0 F4800 X8.829 Y1.352
G1 F3600 X1.352 Y8.829 E117.38023
G0 F4800 X1.918 Y8.829
G1 F3600 X8.829 Y1.918 E117.70531
G0 F4800 X8.829 Y2.484
G1 F3600 X2.484 Y8.829 E118.00376
G0 F4800 X3.049 Y8.829
G1 F3600 X8.829 Y3.049 E118.27563
G0 F4800 X8.829 Y3.615
G1 F3600 X3.615 Y8.829 E118.52088
G0 F4800 X4.181 Y8.829
G1 F3600 X8.829 Y4.181 E118.73951
G0 F4800 X8.829 Y4.746
G1 F3600 X4.746 Y8.829 E118.93156
G0 F4800 X5.312 Y8.829
G1 F3600 X8.829 Y5.312 E119.09699
G0 F4800 X8.829 Y5.878
G1 F3600 X5.878 Y8.829 E119.23579
G0 F4800 X6.443 Y8.829
G1 F3600 X8.829 Y6.443 E119.34802
G0 F4800 X8.829 Y7.009
G1 F3600 X7.009 Y8.829 E119.43363
G0 F4800 X7.575 Y8.829
G1 F3600 X8.829 Y7.575 E119.49262
G0 F4800 X8.829 Y8.14
G1 F3600 X8.14 Y8.829 E119.52502
G0 F4800 X8.706 Y8.829
G1 F3600 X8.829 Y8.706 E119.53081
G0 F4800 X9.2 Y8.706
G1 F1500 E114.53081
;MESH:NONMESH
G0 F600 X9.2 Y8.706 Z0.7
G0 F4800 X9.29 Y8.706
G0 X9.218 Y9.218
G0 X-9.53 Y9.53
G0 X-9.8 Y9.8
;TIME_ELAPSED:83.302262
;LAYER:2
;TYPE:WALL-OUTER
;MESH:xyzCalibration_cube.stl
G1 F1500 E119.53081
G1 F3600 X-9.8 Y-9.8 E120.18271
G1 X9.8 Y-9.8 E120.83461
G1 X9.8 Y9.8 E121.48651
G1 X-9.8 Y9.8 E122.1384
G0 F4800 X-9.8 Y9.6
G0 X-9.36 Y9.36
G0 X-9.4 Y9.4
;TYPE:WALL-INNER
G1 F3600 X-9.4 Y-9.4 E122.76369
G1 X9.4 Y-9.4 E123.38899
G1 X9.4 Y9.4 E124.01428
G1 X-9.4 Y9.4 E124.63957
G0 F4800 X-9.01 Y9.01
;TYPE:SKIN
G1 F3600 X-9.01 Y-9.01 E125.23891
G1 X9.01 Y-9.01 E125.83826
G1 X9.01 Y9.01 E126.43761
G1 X-9.01 Y9.01 E127.03696
G0 F4800 X-8.829 Y8.706
G1 F3600 X-8.706 Y8.829 E127.04274
G0 F4800 X-8.14 Y8.829
G1 F3600 X-8.829 Y8.14 E127.07515
G0 F4800 X-8.829 Y7.575
G1 F3600 X-7.575 Y8.829 E127.13414
G0 F4800 X-7.009 Y8.829
G1 F3600 X-8.829 Y7.009 E127.21974
G0 F4800 X-8.829 Y6.443
